fs/xbox_controller_24_filled.svg

<svg viewBox="0 0 24 24" fill="none" xmlns="http://www.w3.org/2000/svg" height="1em" width="1em">
  <path d="M9.80691 5.50727C9.27796 5.24287 8.69718 5.2011 8.16845 5.30184L6.98583 5.52717C6.12404 5.69136 5.38231 6.24482 4.98197 7.02751C3.61498 9.70005 2.58135 11.8891 2.18265 13.7563C1.77144 15.6822 2.02284 17.3315 3.26186 18.8327C4.08347 19.8282 5.4915 19.627 6.22534 18.7966C6.78412 18.1643 7.42038 17.4321 8.04267 16.7105C8.45247 16.2353 9.04732 15.9619 9.67238 15.9619H14.3281C14.9531 15.9619 15.548 16.2353 15.9578 16.7105C16.5801 17.4321 17.2163 18.1643 17.7751 18.7966C18.5089 19.627 19.917 19.8282 20.7386 18.8327C21.9776 17.3315 22.229 15.6822 21.8178 13.7563C21.4191 11.8891 20.3855 9.70005 19.0185 7.02751C18.6181 6.24482 17.8764 5.69136 17.0146 5.52717L15.832 5.30184C15.3033 5.2011 14.7225 5.24287 14.1935 5.50727C14.0499 5.57907 13.9026 5.65624 13.7541 5.73671C13.3989 5.92921 13.0178 6.03339 12.641 6.03339H11.3594C10.9827 6.03339 10.6016 5.92921 10.2464 5.73671C10.0979 5.65624 9.95055 5.57907 9.80691 5.50727ZM12 11C11.4477 11 11 10.5523 11 10C11 9.44772 11.4477 9 12 9C12.5523 9 13 9.44772 13 10C13 10.5523 12.5523 11 12 11Z" fill="#212121"/>
</svg>

<svg viewBox="0 0 24 24" fill="none" xmlns="http://www.w3.org/2000/svg" height="1em" width="1em">
  <path d="M9.807 5.507a2.576 2.576 0 0 0-1.639-.205l-1.182.225a2.852 2.852 0 0 0-2.004 1.5c-1.367 2.673-2.4 4.862-2.8 6.73-.41 1.925-.16 3.574 1.08 5.076.821.995 2.23.794 2.963-.036.56-.633 1.195-1.365 1.818-2.087a2.153 2.153 0 0 1 1.63-.748h4.655c.625 0 1.22.273 1.63.748.622.722 1.258 1.454 1.817 2.087.734.83 2.142 1.031 2.964.036 1.239-1.502 1.49-3.15 1.079-5.077-.399-1.867-1.433-4.056-2.8-6.728a2.852 2.852 0 0 0-2.003-1.5l-1.183-.226a2.576 2.576 0 0 0-1.639.205c-.143.072-.29.15-.439.23a2.344 2.344 0 0 1-1.113.296h-1.282c-.376 0-.757-.104-1.113-.296a15.07 15.07 0 0 0-.44-.23ZM12 11a1 1 0 1 1 0-2 1 1 0 0 1 0 2Z" fill="#212121"/>
</svg>
